X:1
T:Title
%%score { ( 1 3 ) | ( 2 4 ) }
L:1/8
Q:1/4=100
M:4/4
K:F
V:1 treble nm="Grand Piano"
V:3 treble 
V:2 bass 
V:4 bass 
V:1
 A>_A =A>_A =A2 A2 | B2 [EG]6 | [Bd]3 [Bd] [ce]2 [Bd]2 | [_Ad]2 [=Ac]2 [Ac]4 | A>_A =A>_A =A2 A2 | %5
w: C.~Austin~Miles * * * * *|||||
 c2 [EG]6 | d>^c d>c d2 e2 |[M:2/4] [CEc]4 |[M:3/4] c3 B3 |[M:4/4] F2 z2 z4 | B4 z4 | B4 z4 | %12
w: |||||||
[M:3/4] A2 z2 z2 |[M:1/4] ^c2 |[M:4/4] d6 z2 | c6 z2 | =B6 z2 |[M:3/4] [CGB]6 | c3 B3 | %19
w: |||||||
[M:4/4] A6 z2 | B4 z4 | B4 z4 |[M:3/4] A2 z2 z2 |[M:1/4] A>B |[M:4/4] c>d c>A c2 F>G | %25
w: ||||||
[M:9/8] A>BA- A/F/ A2- AA>B |[M:5/4] [Ac]>[Bd] [Ac]>[FA] [Ac]3 [GB]3 |[M:4/4] [FA]6 z2 |] %28
w: |||
V:2
 [F,CF]>[F,=B,F] [F,CF]>[F,B,F] [^F,C_E]2 [F,CE]2 | [G,CE]2 [C,C]6 | [C,C]3 [C,C] [C,C]2 [C,C]2 | %3
 [F,=B,]2 [F,C]2 [F,C]4 | [F,CF]>[F,=B,F] [F,CF]>[F,B,F] [^F,C_E]2 [F,CE]2 | [G,CE]2 [C,C]6 | %6
 [G,=B,F]>[G,_B,F] [G,=B,F]>[G,_B,F] [G,=B,F]2 [G,B,G]2 |[M:2/4][K:bass] C,4 | %8
[M:3/4][K:treble] A3 G3 |[M:4/4][K:bass] z z/ E/ z z/ C/ F,2 F,2 | C,2 [E,G,C]2 [E,G,C]2 [E,G,]2 | %11
 [C,,C,]2 [E,G,C]2 [E,G,C]2 [E,G,C]2 |[M:3/4] [F,,F,]2 [F,A,C]2 [F,A,C]2 |[M:1/4] E2 | %14
[M:4/4] B,,2 [F,B,]2 [F,B,D]2 [F,B,D]2 | [F,,F,]2 [F,A,C]2 [F,A,C]2 [F,A,C]2 | %16
 [G,,G,]2 [D,G,=B,]2 [D,G,B,]2 [D,G,B,]2 |[M:3/4] C,6 | A3 G3 | %19
[M:4/4][K:bass] z z/ E/ z z/ C/ F,2 F,2 | C,2 [E,G,C]2 [E,G,C]2 [E,G,]2 | %21
 [C,,C,]2 [E,G,C]2 [E,G,C]2 [E,G,C]2 |[M:3/4] [F,,F,]2 [F,A,C]2 [F,A,C]2 |[M:1/4] z2 | %24
[M:4/4] [F,,F,]2 [F,A,C]2 [F,A,C]2 z2 | %25
[M:9/8] [F,,F,]2 [F,A,C]- [F,A,C] [F,A,C]2- [F,A,C][K:treble]F>G | %26
[M:5/4][K:bass] [F,,F,]2 [F,A,C]2 [C,C]3 [C,C]3 |[M:4/4] [F,C]6 z2 |] %28
V:3
 x8 | x8 | x8 | x8 | x8 | x8 | x8 |[M:2/4] x4 |[M:3/4] x6 | %9
[M:4/4] A2- [A,CFA-]2 [A,CDA]2 [A,CFA]2 | E>_E =EF [GB]2 C2 | E>_E =E>F G2 [Bd]2 | %12
[M:3/4] c->[_Ac-] [=Ac-][Gc-] [Fc]2 |[M:1/4] x2 |[M:4/4] D>C DE F2 [Bd]2 | A>_A =AG F2 [Ac]2 | %16
 G>F GD E2 [F=B]2 |[M:3/4] x6 | x6 |[M:4/4] F2 [A,CF]2 [A,CD]2 [A,CFA]2 | E>_E =EF [GB]2 C2 | %21
 E>_E =E>F G2 [Bd]2 |[M:3/4] c->[_Ac-] [=Ac-][Gc-] [Fc]2 |[M:1/4] x2 |[M:4/4] x8 |[M:9/8] x9 | %26
[M:5/4] x10 |[M:4/4] x8 |] %28
V:4
 x8 | x8 | x8 | x8 | x8 | x8 | x8 |[M:2/4][K:bass] x4 |[M:3/4][K:treble] x6 | %9
[M:4/4][K:bass] [F,,F,]2 F,2 z4 | x8 | x8 |[M:3/4] x6 |[M:1/4] x2 |[M:4/4] x8 | x8 | x8 | %17
[M:3/4] x6 | x6 |[M:4/4][K:bass] [F,,F,]2 F,2 z4 | x8 | x8 |[M:3/4] x6 |[M:1/4] x2 |[M:4/4] x8 | %25
[M:9/8] x7[K:treble] x2 |[M:5/4][K:bass] x10 |[M:4/4] x8 |] %28

